src/assets/svg/investment-5.svg

<svg width="41" height="43" viewBox="0 0 41 43" fill="none" xmlns="http://www.w3.org/2000/svg">
<path d="M35.612 15.3159C34.8764 15.3154 34.1499 15.4788 33.4855 15.7944L27.282 8.04247C27.7705 7.41787 28.1027 6.68558 28.2509 5.9066C28.3991 5.12763 28.359 4.32452 28.1339 3.56418C27.9089 2.80384 27.5054 2.10828 26.9571 1.53544C26.4088 0.962612 25.7316 0.529091 24.9818 0.270996C24.2321 0.0129004 23.4315 -0.0622971 22.6468 0.0516683C21.862 0.165634 21.1159 0.465462 20.4706 0.926176C19.8252 1.38689 19.2992 1.99515 18.9365 2.70029C18.5739 3.40542 18.3849 4.18702 18.3854 4.97997C18.3855 5.24862 18.4072 5.51682 18.4505 5.78196L9.00654 9.71536C8.53044 9.05824 7.90088 8.52752 7.17271 8.16943C6.44454 7.81133 5.63985 7.63673 4.82875 7.66083C4.01764 7.68493 3.22474 7.90701 2.51912 8.30771C1.81349 8.70841 1.21656 9.27558 0.780319 9.95981C0.34408 10.644 0.0817728 11.4245 0.0162509 12.2334C-0.049271 13.0422 0.0839805 13.8547 0.404395 14.6003C0.72481 15.3458 1.22267 16.0016 1.85459 16.5107C2.48652 17.0197 3.23333 17.3666 4.02998 17.5209L4.41279 26.9917C3.62229 27.2117 2.89844 27.6237 2.3057 28.1911C1.71295 28.7585 1.26971 29.4637 1.01542 30.2438C0.761131 31.024 0.703692 31.8549 0.848217 32.6626C0.992742 33.4703 1.33475 34.2298 1.84378 34.8733C2.35281 35.5169 3.01308 36.0246 3.7658 36.3513C4.51852 36.6779 5.34033 36.8134 6.15807 36.7456C6.97581 36.6778 7.7641 36.4089 8.45276 35.9628C9.14142 35.5167 9.70909 34.9072 10.1052 34.1886L19.9167 36.9448V37.1362C19.9159 37.952 20.1156 38.7555 20.4983 39.4759C20.881 40.1964 21.435 40.8117 22.1114 41.2677C22.7879 41.7237 23.566 42.0064 24.3774 42.091C25.1888 42.1756 26.0085 42.0593 26.7645 41.7526C27.5204 41.4459 28.1893 40.958 28.7124 40.332C29.2354 39.7059 29.5965 38.9609 29.7639 38.1625C29.9313 37.364 29.8999 36.5367 29.6724 35.7533C29.4448 34.9699 29.0282 34.2544 28.4592 33.6698L33.9812 24.9934C34.6649 25.2309 35.3921 25.3165 36.1122 25.2441C36.8322 25.1717 37.5279 24.9431 38.1506 24.5743C38.7733 24.2055 39.308 23.7053 39.7175 23.1086C40.1271 22.5119 40.4015 21.8331 40.5218 21.1194C40.6421 20.4058 40.6052 19.6745 40.4139 18.9765C40.2225 18.2786 39.8812 17.6307 39.4138 17.0782C38.9463 16.5257 38.364 16.0818 37.7074 15.7774C37.0508 15.4731 36.3357 15.3156 35.612 15.3159ZM24.8933 32.1597C24.744 32.1597 24.5966 32.1597 24.4511 32.1807L21.1034 22.1338L30.8269 21.6706C31.055 22.4556 31.4724 23.1727 32.0423 23.7588L26.5202 32.4353C25.9971 32.2532 25.4472 32.16 24.8933 32.1597ZM8.86681 27.899C8.2398 27.3938 7.49958 27.0483 6.70967 26.8922L6.32685 17.4214C7.19378 17.1777 7.97834 16.7034 8.59693 16.049L17.482 21.1921L8.86681 27.899ZM23.362 9.95653C24.0976 9.95708 24.8241 9.79361 25.4885 9.47801L31.692 17.23C31.2012 17.8563 30.8683 18.5916 30.7216 19.3737L21.0058 19.8369L23.362 9.95653ZM23.362 2.30028C23.892 2.30028 24.4101 2.45744 24.8508 2.75189C25.2914 3.04634 25.6349 3.46485 25.8377 3.9545C26.0405 4.44414 26.0936 4.98294 25.9902 5.50275C25.8868 6.02256 25.6316 6.50003 25.2568 6.87479C24.8821 7.24955 24.4046 7.50477 23.8848 7.60817C23.365 7.71156 22.8262 7.65849 22.3365 7.45568C21.8469 7.25286 21.4284 6.90939 21.1339 6.46872C20.8395 6.02805 20.6823 5.50996 20.6823 4.97997C20.6823 4.26927 20.9646 3.58768 21.4672 3.08514C21.9697 2.5826 22.6513 2.30028 23.362 2.30028ZM19.3425 7.90083C19.8096 8.54236 20.4223 9.06387 21.1302 9.42251L18.7683 19.2914L9.75303 14.0679C9.97051 13.3441 10.0203 12.5802 9.8985 11.8342L19.3425 7.90083ZM2.30732 12.6362C2.30732 12.1062 2.46448 11.5881 2.75893 11.1475C3.05338 10.7068 3.47189 10.3633 3.96154 10.1605C4.45119 9.95769 4.98998 9.90462 5.50979 10.008C6.0296 10.1114 6.50707 10.3666 6.88184 10.7414C7.2566 11.1162 7.51181 11.5936 7.61521 12.1134C7.71861 12.6332 7.66554 13.172 7.46272 13.6617C7.2599 14.1513 6.91644 14.5698 6.47577 14.8643C6.03509 15.1587 5.517 15.3159 4.98701 15.3159C4.27631 15.3159 3.59472 15.0336 3.09218 14.531C2.58965 14.0285 2.30732 13.3469 2.30732 12.6362ZM5.75264 34.4565C5.22264 34.4565 4.70455 34.2994 4.26388 34.0049C3.82321 33.7105 3.47975 33.292 3.27693 32.8023C3.07411 32.3127 3.02104 31.7739 3.12444 31.2541C3.22783 30.7343 3.48305 30.2568 3.85781 29.882C4.23257 29.5073 4.71005 29.252 5.22985 29.1486C5.74966 29.0452 6.28846 29.0983 6.77811 29.3011C7.26776 29.504 7.68627 29.8474 7.98071 30.2881C8.27516 30.7288 8.43232 31.2469 8.43232 31.7768C8.43232 32.4875 8.15 33.1691 7.64746 33.6717C7.14492 34.1742 6.46333 34.4565 5.75264 34.4565ZM10.7292 31.9682V31.7768C10.7295 31.0641 10.5761 30.3597 10.2794 29.7116L18.9597 22.9607L22.2748 32.9138C21.5528 33.3627 20.9567 33.9877 20.5426 34.7302L10.7292 31.9682ZM24.8933 39.8159C24.3633 39.8159 23.8452 39.6587 23.4045 39.3643C22.9638 39.0699 22.6204 38.6513 22.4176 38.1617C22.2147 37.672 22.1617 37.1332 22.2651 36.6134C22.3685 36.0936 22.6237 35.6162 22.9984 35.2414C23.3732 34.8666 23.8507 34.6114 24.3705 34.508C24.8903 34.4046 25.4291 34.4577 25.9187 34.6605C26.4084 34.8633 26.8269 35.2068 27.1213 35.6475C27.4158 36.0881 27.5729 36.6062 27.5729 37.1362C27.5729 37.8469 27.2906 38.5285 26.7881 39.031C26.2855 39.5336 25.604 39.8159 24.8933 39.8159ZM35.612 22.9722C35.082 22.9722 34.5639 22.815 34.1233 22.5205C33.6826 22.2261 33.3391 21.8076 33.1363 21.3179C32.9335 20.8283 32.8804 20.2895 32.9838 19.7697C33.0872 19.2499 33.3424 18.7724 33.7172 18.3976C34.0919 18.0229 34.5694 17.7677 35.0892 17.6643C35.609 17.5609 36.1478 17.6139 36.6375 17.8168C37.1271 18.0196 37.5456 18.363 37.8401 18.8037C38.1345 19.2444 38.2917 19.7625 38.2917 20.2925C38.2917 21.0032 38.0094 21.6848 37.5068 22.1873C37.0043 22.6898 36.3227 22.9722 35.612 22.9722Z" fill="#00C700"/>
</svg>

<svg xmlns="http://www.w3.org/2000/svg" width="41" height="43" fill="none"><path fill="#00C700" d="M35.612 15.316c-.736 0-1.462.163-2.126.478l-6.204-7.752a4.977 4.977 0 1 0-8.831-2.26L9.007 9.715a4.976 4.976 0 1 0-4.977 7.806l.383 9.47a4.977 4.977 0 1 0 5.692 7.198l9.812 2.756v.191a4.977 4.977 0 1 0 8.542-3.466l5.522-8.677a4.977 4.977 0 1 0 1.631-9.677M24.893 32.16c-.149 0-.296 0-.442.02l-3.348-10.046 9.724-.463a5 5 0 0 0 1.215 2.088l-5.522 8.676a5 5 0 0 0-1.627-.275M8.867 27.899a5 5 0 0 0-2.157-1.007l-.383-9.47a5 5 0 0 0 2.27-1.373l8.885 5.143zM23.362 9.957c.736 0 1.462-.163 2.127-.479l6.203 7.752a4.96 4.96 0 0 0-.97 2.144l-9.716.463zm0-7.657a2.68 2.68 0 1 1 0 5.36 2.68 2.68 0 0 1 0-5.36m-4.02 5.6a5 5 0 0 0 1.788 1.523l-2.362 9.868-9.015-5.223a5 5 0 0 0 .146-2.234zM2.308 12.637a2.68 2.68 0 1 1 5.359 0 2.68 2.68 0 0 1-5.359 0m3.446 21.82a2.68 2.68 0 1 1 0-5.358 2.68 2.68 0 0 1 0 5.358m4.976-2.488v-.191c0-.713-.153-1.417-.45-2.065l8.68-6.751 3.316 9.953a5 5 0 0 0-1.732 1.816zm14.164 7.848a2.68 2.68 0 1 1 0-5.36 2.68 2.68 0 0 1 0 5.36m10.719-16.844a2.679 2.679 0 1 1 0-5.358 2.679 2.679 0 0 1 0 5.358"/></svg>
